src/icons/earth.svg

<svg xmlns="http://www.w3.org/2000/svg" width="512" height="512" viewBox="0 0 512 512">
    <path d="M236.1 106.8c-1.6-2.8-6.8-8.5-10-9.5-4.3-.7-1.7 3.2-1.7 4.8-1.1.8-2.8 1.8-3.6 2.9-.5.4 1.2 4.4 4.5 3.1 3.3-1.3 1.4 1.3 3.7 6.3 2.3 5 6.9 5.1 8.9 3.6 2.6-2-.4-8.6-1.8-11.2z"/>
    <path d="M256 89.5c-88.4 0-160 71.6-160 160s71.6 160 160 160 160-71.6 160-160-71.6-160-160-160zm-59 283.9c-3.9-2.2-6.7-5.4-7.8-11.4-2.8-14.9-.2-22.9 12.8-31.6 6.1-4.1 7.2-9.1 12.1-14 1.2-1.5 4.4-7.4 6.6-7.7 2.6-.6 9.8-1.8 11.2-4.6 2.7-3.7 8.7-19.6 11.3-21.1 4.3-2.8 10.3-11.4 5.9-16.5-5-6.2-12-6.3-18.5-9.5-5.7-2.9-8.3-15.9-12.6-20.4-8.5-8.7-21.4-13.7-32.1-19.1-5.8-2.3-5.2-3-9.8 1.5-5.8 5.8-14.4-1.5-15.2-7.5-.1-2-2.4-13-1-13.9 12.8-8-5.9-6.2-7.5-9.9-3.8-10.7 9.3-19.2 18.1-20.1 9.9-1.2 12 15.6 15.8 14.2 1.8-.9 1.8-8.9 2.1-10.6.9-5.7 2.6-6.6 8.1-8.7 6.5-2.4 11.5-5.4 18.4-6.6 7.9-2.3 14.5-1.1 20.6-6.1 2.8-2.1 4.8 1.1 7.4 1.7 5.7 1.1 6.9-7.9 6.9-11.4 0-3.3.9-6.2-3.4-9.7-5.6-4.3-13.6-.6-18.1 3.9-5.4 5-11.7 4.7-9.9-4 .5-3.2 7.3-6.8 10-8.6 2.6-1.6 4.2 1.8 7.4 1 4.7-1 6.5 3.4 12 3.4 2.3-.5 10.6-4.9 6.2-13.8h2c1.3 0 2.6 0 4 .1 2 6.3-4.3 11.7-1.1 19.7 6.3 15.3 11.4 2.2 17.6-5 2-2 3.3-1.6 6.6-2.2 2.1-.3 5-6.6 6-8.6 14.3 3.5 28 9.4 40.4 17.3-5.3.6-6.7-1-6.6 5.3 0 2.4.2 9.5 3.8 10.1 5.9.7 4.8 4.9 10.4 5.6 5.3.7 2 5.4 4.2 10 2.4 7.3-14.1 9.5-17.4 10.6-9.7 3.3 4.5 17.4 10.9 15.9 2-.5 8.7-1.4 9.2-3.6 0-.2-1.3-7.9-.6-8.7 1.1-1.4 3.7-2.1 7.7.2 9.6 5.4 14.4 18.4 25.6 20.9 1.5.3 4.2-.1 6.1 1.5 1.6 2.2 5.7 6 .8 6-6.4-1.4-9.8.6-15.1-3.5-5.5-4.3-9-7.8-16.2-7.9-6.3-.1-11.9-2.7-18.4-1.7-3.6.6-7.2 2-10.7 3.1-3.3 1.1-3.9 7-7.3 7.6-13.9 3.3-10.9 16.5-13.4 27.1-1 4-4.3 15-.7 18.6 6.5 6.3 14.1 15 23.7 16.4 5.1.7 16.4-3.3 19.9 2 1.5 2.9 5.3-2.2 6.4.4 2.6 7.8-3 13-3.1 20.4-.1 10.9 6.6 14.7-2.3 24.4-9.7 9.7-3.1 22-8.5 33.6-2.9 6-3.4 14.2-7.8 17-9.5 6.1-19.8 11-30.5 14.6-19 6.3-39.4 8.3-59.3 6-10.5-1.2-20.7-3.6-30.6-7.2-2.7-1-5.2-1.8-7.5-2.6-1.8-.8-3.5-1.5-5.2-2.3zM167.2 354c-.3-.3-.7-.6-1-.9-2.5-2.1-4.9-4.4-7.2-6.7-2.4-2.4-4.7-4.9-7-7.5l-.1-.1c-.5-.5-.9-1.1-1.3-1.6-36.9-44.6-42.3-109.9-11.4-159.9 4.3 4.3-2.9 12.9 5.4 18.6 3.7 2.6 7.2 1.5 6.4 6.3-.7 4.6 3.8 4.5 4.5 8.6 2 8.9 13.7 13.3 7.1 23.3-6.5 9-12.1 19.1-7.2 30.6 1.6 4.2 5.7 8.5 8.7 11.6 5.6 5.7 5.3 2.3 5.3 9.5-.1 3.1 3.8 6.4 3.4 8.4-.7 5.7-2.1 11.4-2.8 17.1-1.3 20.5-.1 40.5 15.2 55.8-5.7-3.4-11.2-7.3-16.4-11.6-.5-.6-1.1-1-1.6-1.5z"/>
</svg>

<?xml version="1.0" encoding="UTF-8"?>
<svg width="512px" height="512px" viewBox="0 0 512 512" version="1.1" xmlns="http://www.w3.org/2000/svg" xmlns:xlink="http://www.w3.org/1999/xlink">
    <!-- Generator: Sketch 62 (91390) - https://sketch.com -->
    <title>earth</title>
    <desc>Created with Sketch.</desc>
    <g id="earth" stroke="none" stroke-width="1" fill="none" fill-rule="evenodd">
        <path d="M236.1,106.8 C234.5,104 229.3,98.3 226.1,97.3 C221.8,96.6 224.4,100.5 224.4,102.1 C223.3,102.9 221.6,103.9 220.8,105 C220.3,105.4 222,109.4 225.3,108.1 C228.6,106.8 226.7,109.4 229,114.4 C231.3,119.4 235.9,119.5 237.9,118 C240.5,116 237.5,109.4 236.1,106.8 L236.1,106.8 Z" id="Shape" fill="#000000" fill-rule="nonzero"></path>
        <path d="M256,89.5 C167.6,89.5 96,161.1 96,249.5 C96,337.9 167.6,409.5 256,409.5 C344.4,409.5 416,337.9 416,249.5 C416,161.1 344.4,89.5 256,89.5 Z M197,373.4 C193.1,371.2 190.3,368 189.2,362 C186.4,347.1 189,339.1 202,330.4 C208.1,326.3 209.2,321.3 214.1,316.4 C215.3,314.9 218.5,309 220.7,308.7 C223.3,308.1 230.5,306.9 231.9,304.1 C234.6,300.4 240.6,284.5 243.2,283 C247.5,280.2 253.5,271.6 249.1,266.5 C244.1,260.3 237.1,260.2 230.6,257 C224.9,254.1 222.3,241.1 218,236.6 C209.5,227.9 196.6,222.9 185.9,217.5 C180.1,215.2 180.7,214.5 176.1,219 C170.3,224.8 161.7,217.5 160.9,211.5 C160.8,209.5 158.5,198.5 159.9,197.6 C172.7,189.6 154,191.4 152.4,187.7 C148.6,177 161.7,168.5 170.5,167.6 C180.4,166.4 182.5,183.2 186.3,181.8 C188.1,180.9 188.1,172.9 188.4,171.2 C189.3,165.5 191,164.6 196.5,162.5 C203,160.1 208,157.1 214.9,155.9 C222.8,153.6 229.4,154.8 235.5,149.8 C238.3,147.7 240.3,150.9 242.9,151.5 C248.6,152.6 249.8,143.6 249.8,140.1 C249.8,136.8 250.7,133.9 246.4,130.4 C240.8,126.1 232.8,129.8 228.3,134.3 C222.9,139.3 216.6,139 218.4,130.3 C218.9,127.1 225.7,123.5 228.4,121.7 C231,120.1 232.6,123.5 235.8,122.7 C240.5,121.7 242.3,126.1 247.8,126.1 C250.1,125.6 258.4,121.2 254,112.3 L256,112.3 C257.3,112.3 258.6,112.3 260,112.4 C262,118.7 255.7,124.1 258.9,132.1 C265.2,147.4 270.3,134.3 276.5,127.1 C278.5,125.1 279.8,125.5 283.1,124.9 C285.2,124.6 288.1,118.3 289.1,116.3 C303.4,119.8 317.1,125.7 329.5,133.6 C324.2,134.2 322.8,132.6 322.9,138.9 C322.9,141.3 323.1,148.4 326.7,149 C332.6,149.7 331.5,153.9 337.1,154.6 C342.4,155.3 339.1,160 341.3,164.6 C343.7,171.9 327.2,174.1 323.9,175.2 C314.2,178.5 328.4,192.6 334.8,191.1 C336.8,190.6 343.5,189.7 344,187.5 C344,187.3 342.7,179.6 343.4,178.8 C344.5,177.4 347.1,176.7 351.1,179 C360.7,184.4 365.5,197.4 376.7,199.9 C378.2,200.2 380.9,199.8 382.8,201.4 C384.4,203.6 388.5,207.4 383.6,207.4 C377.2,206 373.8,208 368.5,203.9 C363,199.6 359.5,196.1 352.3,196 C346,195.9 340.4,193.3 333.9,194.3 C330.3,194.9 326.7,196.3 323.2,197.4 C319.9,198.5 319.3,204.4 315.9,205 C302,208.3 305,221.5 302.5,232.1 C301.5,236.1 298.2,247.1 301.8,250.7 C308.3,257 315.9,265.7 325.5,267.1 C330.6,267.8 341.9,263.8 345.4,269.1 C346.9,272 350.7,266.9 351.8,269.5 C354.4,277.3 348.8,282.5 348.7,289.9 C348.6,300.8 355.3,304.6 346.4,314.3 C336.7,324 343.3,336.3 337.9,347.9 C335,353.9 334.5,362.1 330.1,364.9 C320.6,371 310.3,375.9 299.6,379.5 C280.6,385.8 260.2,387.8 240.3,385.5 C229.8,384.3 219.6,381.9 209.7,378.3 C207,377.3 204.5,376.5 202.2,375.7 C200.4,374.9 198.7,374.2 197,373.4 L197,373.4 Z M167.2,354 C166.9,353.7 166.5,353.4 166.2,353.1 C163.7,351 161.3,348.7 159,346.4 C156.6,344 154.3,341.5 152,338.9 L151.9,338.8 C151.4,338.3 151,337.7 150.6,337.2 C113.7,292.6 108.3,227.3 139.2,177.3 C143.5,181.6 136.3,190.2 144.6,195.9 C148.3,198.5 151.8,197.4 151,202.2 C150.3,206.8 154.8,206.7 155.5,210.8 C157.5,219.7 169.2,224.1 162.6,234.1 C156.1,243.1 150.5,253.2 155.4,264.7 C157,268.9 161.1,273.2 164.1,276.3 C169.7,282 169.4,278.6 169.4,285.8 C169.3,288.9 173.2,292.2 172.8,294.2 C172.1,299.9 170.7,305.6 170,311.3 C168.7,331.8 169.9,351.8 185.2,367.1 C179.5,363.7 174,359.8 168.8,355.5 C168.3,354.9 167.7,354.5 167.2,354 Z" id="Shape" fill="#000000" fill-rule="nonzero"></path>
    </g>
</svg>
